X: 1576
T: Fisher's Hornpipe
R:hornpipe
N:"2nd Setting"
B:O'Neill's 1576
Z:Transcribed by Michael Hogan
M:C|
L:1/8
K:D
(3ABc | dAFA GBAG | FDFD GBAG | FDFD gfgB |AFDF E2 (3ABc |
dAFA GBAG | FDFD GBAG | FAdf {a}gece | d2 d2 d2 :|
|:(cd) | ecAc efge | fdAd fgaf | ecAc efgf | edcB A2 A2 |
BGDG BcdB | AFDF ABcA | BcdB AGFE | D2 D2 D2 :||


